; Generated by Kiri:Moto 3.9.D11
; Fri Mar 24 2023 13:29:38 GMT+0530 (India Standard Time)
; Bed left:0 right:300 top:175 bottom:0
; Bed type: fixed
; Target: Any.Generic.Marlin
; --- process ---
; processName = default
; sliceHeight = 0.25
; sliceShells = 3
; sliceShellOrder = in-out
; sliceLayerStart = last
; sliceLayerStartX = 0
; sliceLayerStartY = 0
; sliceLineWidth = 0
; sliceFillGrow = 0
; sliceFillAngle = 45
; sliceFillWidth = 1
; sliceFillOverlap = 0.35
; sliceFillSparse = 0.25
; sliceFillRepeat = 1
; sliceFillRate = 0
; sliceSolidRate = 0
; sliceFillType = hex
; sliceSupportDensity = 0.1
; sliceSupportOffset = 1
; sliceSupportGap = 1
; sliceSupportSize = 5
; sliceSupportArea = 0.1
; sliceSupportSpan = 5
; sliceSupportGrow = 0
; sliceSupportExtra = 0
; sliceSupportAngle = 50
; sliceSupportNozzle = 0
; sliceSupportEnable = false
; sliceSupportOutline = true
; sliceSolidMinArea = 1
; sliceBottomLayers = 3
; sliceTopLayers = 3
; firstSliceHeight = 0.25
; firstLayerRate = 30
; firstLayerFillRate = 35
; firstLayerPrintMult = 1
; firstLayerLineMult = 1
; firstLayerYOffset = 0
; firstLayerNozzleTemp = 0
; firstLayerBedTemp = 0
; firstLayerBrim = 0
; firstLayerBrimIn = 0
; firstLayerBrimTrig = 0
; firstLayerBrimGap = 0
; firstLayerBeltLead = 3
; firstLayerBeltBump = 0
; firstLayerFanSpeed = 0
; firstLayerFlatten = 0
; outputRaft = false
; outputRaftSpacing = 0.2
; outputDraftShield = false
; outputTemp = 200
; outputBedTemp = 60
; outputFeedrate = 50
; outputFinishrate = 50
; outputSeekrate = 80
; outputShellMult = 1.25
; outputFillMult = 1.25
; outputSparseMult = 1.25
; outputFanSpeed = 255
; outputRetractDist = 1.5
; outputRetractSpeed = 40
; outputRetractWipe = 0
; outputRetractDwell = 20
; outputBrimCount = 2
; outputBrimOffset = 2
; outputShortPoly = 100
; outputMinSpeed = 10
; outputCoastDist = 0
; outputPurgeTower = 0
; outputBeltFirst = false
; outputAvoidGaps = true
; outputAlternating = false
; outputLayerRetract = false
; outputOriginCenter = false
; outputLoops = 0
; outputInvertX = false
; outputInvertY = false
; sliceDetectThin = off
; sliceMinHeight = 0
; sliceAdaptive = false
; zHopDistance = 0.2
; arcTolerance = 0
; antiBacklash = 1
; ranges = []
; --- startup ---
M104 S200 T0             ; set extruder temperature
M140 S60 T0              ; set bed temperature
G90                      ; set absolute positioning mode
M83                      ; set relative positioning for extruder
M107                     ; turn off filament cooling fan
G28                      ; home axes
G92 X0 Y0 Z0 E0          ; reset all axes positions
G1 X0 Y0 Z0.25 F180      ; move xy to 0,0 and z 0.25mm over bed
G92 E0                   ; zero the extruded
M190 S60 T0              ; wait for bed to reach target temp
M109 S200 T0             ; wait for extruder to reach target temp
G1 E15 F200              ; purge 15mm from extruder
G92 E0                   ; zero the extruded
G1 F225                  ; set feed speed
G1 E-1.5000 F2400 ; e-retract 1.5
;; --- layer 0 (0.250 @ 0.255) ---
M106 S0
G1 Z0.2550 F4800
; feature brim
G1 X150.1689 Y97.8176
G1 E1.5000 F2400 ; e-engage 1.5
G4 P20
G1 X151.0848 Y97.7869 E0.0374 F1800
G1 X151.9612 Y97.7110 E0.0359
G1 X152.9764 Y97.5668 E0.0419
G1 X154.0830 Y97.3367 E0.0461
G1 X155.0976 Y97.0578 E0.0429
G1 X156.2504 Y96.6583 E0.0498
G1 X157.4495 Y96.1384 E0.0533
G1 X158.5079 Y95.5836 E0.0488
G1 X159.3696 Y95.0609 E0.0411
G1 X160.0556 Y94.5924 E0.0339
G1 X160.9386 Y93.9127 E0.0455
G1 X161.5325 Y93.3991 E0.0320
G1 X162.0871 Y92.8748 E0.0312
G1 X162.8183 Y92.1060 E0.0433
G1 X163.3860 Y91.4384 E0.0358
G1 X164.0744 Y90.5222 E0.0468
G1 X164.6484 Y89.6459 E0.0428
G1 X164.9813 Y89.0772 E0.0269
G1 X165.1970 Y88.5443 E0.0235
G1 X165.3244 Y87.9712 E0.0240
G1 X165.3567 Y87.3949 E0.0236
G1 X165.2901 Y86.8315 E0.0232
G1 X165.1823 Y86.4226 E0.0173
G1 X165.0102 Y85.9836 E0.0192
G1 X164.7102 Y85.4563 E0.0248
G1 X164.3832 Y84.9346 E0.0251
G1 X163.7901 Y84.0851 E0.0423
G1 X163.1986 Y83.3339 E0.0390
G1 X162.5207 Y82.5700 E0.0417
G1 X162.0629 Y82.1011 E0.0267
G1 X161.6267 Y81.6864 E0.0246
G1 X161.0830 Y81.2082 E0.0296
G1 X160.1053 Y80.4433 E0.0507
G1 X159.5182 Y80.0371 E0.0291
G1 X159.0137 Y79.7156 E0.0244
G1 X158.3902 Y79.3502 E0.0295
G1 X157.6058 Y78.9379 E0.0362
G1 X156.4039 Y78.4030 E0.0537
G1 X155.3988 Y78.0382 E0.0436
G1 X154.4730 Y77.7636 E0.0394
G1 X153.8904 Y77.6189 E0.0245
G1 X153.1931 Y77.4727 E0.0291
G1 X152.2447 Y77.3225 E0.0392
G1 X151.2994 Y77.2269 E0.0388
G1 X150.3223 Y77.1840 E0.0399
G1 X149.3474 Y77.1974 E0.0398
G1 X125.5643 Y78.6439 E0.9725
G1 X125.0864 Y78.7024 E0.0197
G1 X124.5615 Y78.8455 E0.0222
G1 X124.2361 Y78.9734 E0.0143
G1 X123.8047 Y79.1970 E0.0198
G1 X123.4967 Y79.4041 E0.0151
G1 X123.1246 Y79.7148 E0.0198
G1 X122.7604 Y80.1153 E0.0221
G1 X122.4476 Y80.5820 E0.0229
G1 X122.2119 Y81.0653 E0.0220
G1 X122.0433 Y81.5813 E0.0222
G1 X121.9478 Y82.0872 E0.0210
G1 X121.9197 Y82.4278 E0.0139
G1 X121.9203 Y92.6272 E0.4163
G1 X121.9830 Y93.1353 E0.0209
G1 X122.1153 Y93.6720 E0.0226
G1 X122.3245 Y94.1867 E0.0227
G1 X122.5949 Y94.6563 E0.0221
G1 X122.9327 Y95.0879 E0.0224
G1 X123.3208 Y95.4598 E0.0219
G1 X123.6020 Y95.6710 E0.0144
G1 X124.0270 Y95.9299 E0.0203
G1 X124.5481 Y96.1524 E0.0231
G1 X125.0612 Y96.2902 E0.0217
G1 X125.4066 Y96.3422 E0.0143
G1 X149.5359 Y97.8097 E0.9867
G1 X150.1689 Y97.8176 E0.0258
G1 X150.1731 Y98.2177 F4800
G1 X151.1088 Y98.1864 E0.0382 F1800
G1 X152.0066 Y98.1085 E0.0368
G1 X153.0454 Y97.9610 E0.0428
G1 X154.1768 Y97.7257 E0.0472
G1 X155.2163 Y97.4400 E0.0440
G1 X156.3957 Y97.0313 E0.0509
G1 X157.6221 Y96.4995 E0.0546
G1 X158.7047 Y95.9321 E0.0499
G1 X159.5862 Y95.3973 E0.0421
G1 X160.2906 Y94.9163 E0.0348
G1 X161.1916 Y94.2227 E0.0464
G1 X161.8008 Y93.6959 E0.0329
G1 X162.3697 Y93.1582 E0.0320
G1 X163.1158 Y92.3736 E0.0442
G1 X163.6985 Y91.6883 E0.0367
G1 X164.4019 Y90.7521 E0.0478
G1 X164.9885 Y89.8567 E0.0437
G1 X165.3412 Y89.2542 E0.0285
G1 X165.5803 Y88.6636 E0.0260
G1 X165.7219 Y88.0261 E0.0267
G1 X165.7580 Y87.3825 E0.0263
G1 X165.6840 Y86.7567 E0.0257
G1 X165.5632 Y86.2981 E0.0194
G1 X165.3721 Y85.8107 E0.0214
G1 X165.0536 Y85.2511 E0.0263
G1 X164.7168 Y84.7137 E0.0259
G1 X164.1115 Y83.8467 E0.0432
G1 X163.5056 Y83.0772 E0.0400
G1 X162.8135 Y82.2973 E0.0426
G1 X162.3439 Y81.8163 E0.0274
G1 X161.8967 Y81.3911 E0.0252
G1 X161.3385 Y80.9003 E0.0303
G1 X160.3425 Y80.1210 E0.0516
G1 X159.7395 Y79.7038 E0.0299
G1 X159.2223 Y79.3743 E0.0250
G1 X158.5845 Y79.0005 E0.0302
G1 X157.7804 Y78.5777 E0.0371
G1 X156.5536 Y78.0318 E0.0548
G1 X155.5240 Y77.6581 E0.0447
G1 X154.5781 Y77.3775 E0.0403
G1 X153.9797 Y77.2289 E0.0252
G1 X153.2654 Y77.0792 E0.0298
G1 X152.2962 Y76.9257 E0.0401
G1 X151.3283 Y76.8277 E0.0397
G1 X150.3283 Y76.7839 E0.0409
G1 X149.3325 Y76.7976 E0.0407
G1 X125.5278 Y78.2454 E0.9734
G1 X125.0091 Y78.3089 E0.0213
G1 X124.4353 Y78.4653 E0.0243
G1 X124.0704 Y78.6088 E0.0160
G1 X123.6004 Y78.8523 E0.0216
G1 X123.2563 Y79.0837 E0.0169
G1 X122.8471 Y79.4253 E0.0218
G1 X122.4446 Y79.8681 E0.0244
G1 X122.1001 Y80.3820 E0.0253
G1 X121.8403 Y80.9148 E0.0242
G1 X121.6551 Y81.4817 E0.0243
G1 X121.5509 Y82.0335 E0.0229
G1 X121.5197 Y82.4113 E0.0155
G1 X121.5203 Y92.6518 E0.4180
G1 X121.5889 Y93.2079 E0.0229
G1 X121.7338 Y93.7959 E0.0247
G1 X121.9643 Y94.3626 E0.0250
G1 X122.2625 Y94.8805 E0.0244
G1 X122.6353 Y95.3569 E0.0247
G1 X123.0614 Y95.7652 E0.0241
G1 X123.3773 Y96.0025 E0.0161
G1 X123.8434 Y96.2865 E0.0223
G1 X124.4170 Y96.5314 E0.0255
G1 X124.9793 Y96.6824 E0.0238
G1 X125.3646 Y96.7404 E0.0159
G1 X149.5213 Y98.2095 E0.9878
G1 X150.1731 Y98.2177 E0.0266
G1 E-1.5000 F2400 ; e-retract 1.5
G1 Z0.4550 F4800 ; z-hop start
; feature shells
G1 X147.2090 Y90.9817
G1 Z0.2550 ; z-hop end
G1 E1.5000 F2400 ; e-engage 1.5
G4 P20
G1 X147.3987 Y90.8857 E0.0087 F690
G1 X147.5677 Y90.7598 E0.0086
G1 X147.7144 Y90.6035 E0.0088
G1 X147.8285 Y90.4257 E0.0086
G1 X147.9109 Y90.2311 E0.0086
G1 X147.9582 Y90.0278 E0.0085
G1 X147.9673 Y89.9130 E0.0047
G1 X147.9592 Y89.7087 E0.0083
G1 X147.9370 Y89.5951 E0.0047
G1 X147.8743 Y89.4000 E0.0084
G1 X147.7789 Y89.2150 E0.0085
G1 X147.7104 Y89.1202 E0.0048
G1 X147.5674 Y88.9690 E0.0085
G1 X147.3987 Y88.8433 E0.0086
G1 X147.2090 Y88.7473 E0.0087
G1 X147.0043 Y88.6871 E0.0087
G1 X146.7946 Y88.6643 E0.0086
G1 X146.5821 Y88.6775 E0.0087
G1 X146.3765 Y88.7292 E0.0087
G1 X146.1818 Y88.8158 E0.0087
G1 X146.0078 Y88.9358 E0.0086
G1 X145.8559 Y89.0829 E0.0086
G1 X145.7317 Y89.2565 E0.0087
G1 X145.6417 Y89.4484 E0.0086
G1 X145.5853 Y89.6526 E0.0086
G1 X145.5673 Y89.8640 E0.0087
G1 X145.5853 Y90.0764 E0.0087
G1 X145.6417 Y90.2806 E0.0086
G1 X145.7317 Y90.4725 E0.0086
G1 X145.8559 Y90.6461 E0.0087
G1 X146.0078 Y90.7932 E0.0086
G1 X146.1818 Y90.9132 E0.0086
G1 X146.3770 Y91.0000 E0.0087
G1 X146.5821 Y91.0504 E0.0086
G1 X146.7941 Y91.0647 E0.0087
G1 X147.0043 Y91.0419 E0.0086
G1 X147.2090 Y90.9817 E0.0087
G1 X148.4349 Y90.3858 F4800
G1 X148.5079 Y90.5108 E0.0059 F832
G1 X148.6117 Y90.6205 E0.0062
G1 X148.7927 Y90.7321 E0.0087
G1 X148.9879 Y90.7826 E0.0082
G1 X149.1267 Y90.7792 E0.0057
G1 X149.2661 Y90.7344 E0.0060
G1 X149.4263 Y90.6244 E0.0079
G1 X149.5832 Y90.4437 E0.0098
G1 X149.8119 Y90.1027 E0.0168
G1 X149.9764 Y89.7915 E0.0144
G1 X150.1051 Y89.5112 E0.0126
G1 X150.1437 Y89.5762 E0.0031
G1 X150.3737 Y90.0073 E0.0199
G1 X150.6701 Y90.5054 E0.0237
G1 X150.8392 Y90.6798 E0.0099
G1 X150.9879 Y90.7624 E0.0069
G1 X151.1971 Y90.8026 E0.0087
G1 X151.3524 Y90.7898 E0.0064
G1 X151.4983 Y90.7506 E0.0062
G1 X151.6715 Y90.6530 E0.0081
G1 X151.7697 Y90.5515 E0.0058
G1 X151.8413 Y90.4282 E0.0058
G1 X151.8828 Y90.2850 E0.0061
G1 X151.8948 Y90.1307 E0.0063
G1 X151.8783 Y89.9667 E0.0067
G1 X151.8337 Y89.8076 E0.0067
G1 X151.7218 Y89.5781 E0.0104
G1 X151.5126 Y89.2501 E0.0159
G1 X151.2390 Y88.7649 E0.0227
G1 X151.0523 Y88.4661 E0.0144
G1 X151.0038 Y88.3587 E0.0048
G1 X150.9836 Y88.2560 E0.0043
G1 X150.9863 Y88.1643 E0.0037
G1 X151.0254 Y88.0132 E0.0064
G1 X151.1230 Y87.8163 E0.0090
G1 X151.4571 Y87.2760 E0.0259
G1 X151.7632 Y86.7362 E0.0253
G1 X151.8142 Y86.5963 E0.0061
G1 X151.8372 Y86.4594 E0.0057
G1 X151.8254 Y86.2989 E0.0066
G1 X151.7748 Y86.1589 E0.0061
G1 X151.6956 Y86.0324 E0.0061
G1 X151.5938 Y85.9263 E0.0060
G1 X151.4548 Y85.8327 E0.0068
G1 X151.2756 Y85.7806 E0.0076
G1 X151.1304 Y85.7878 E0.0059
G1 X150.9495 Y85.8547 E0.0079
G1 X150.7642 Y85.9870 E0.0093
G1 X150.5840 Y86.1812 E0.0108
G1 X150.4751 Y86.3421 E0.0079
G1 X150.3746 Y86.5333 E0.0088
G1 X150.1921 Y86.9505 E0.0186
G1 X149.9119 Y86.4059 E0.0250
G1 X149.7384 Y86.1430 E0.0129
G1 X149.5750 Y85.9630 E0.0099
G1 X149.4011 Y85.8412 E0.0087
G1 X149.2143 Y85.7833 E0.0080
G1 X149.0725 Y85.7818 E0.0058
G1 X148.9508 Y85.8046 E0.0051
G1 X148.7918 Y85.8678 E0.0070
G1 X148.6650 Y85.9519 E0.0062
G1 X148.5367 Y86.1025 E0.0081
G1 X148.4723 Y86.2848 E0.0079
G1 X148.4707 Y86.4618 E0.0072
G1 X148.5078 Y86.6421 E0.0075
G1 X148.6115 Y86.8980 E0.0113
G1 X149.1249 Y87.8087 E0.0427
G1 X149.3726 Y88.1897 E0.0185
G1 X149.3866 Y88.2229 E0.0015
G1 X149.3943 Y88.2579 E0.0015
G1 X149.3928 Y88.2901 E0.0013
G1 X149.3621 Y88.3648 E0.0033
G1 X149.0843 Y88.7465 E0.0193
G1 X148.5429 Y89.6761 E0.0439
G1 X148.4417 Y89.9135 E0.0105
G1 X148.4055 Y90.0608 E0.0062
G1 X148.3967 Y90.2037 E0.0058
G1 X148.4349 Y90.3858 E0.0076
G1 X147.9307 Y90.1461 F4800
G1 X147.9582 Y90.0278
G1 X147.9673 Y89.9130
G1 X147.9592 Y89.7087
G1 X147.9370 Y89.5951
G1 X147.8743 Y89.4000
G1 X147.7789 Y89.2150
G1 X147.7104 Y89.1202
G1 X147.5674 Y88.9690
G1 X147.3987 Y88.8433
G1 X147.2090 Y88.7473
G1 X147.0043 Y88.6871
G1 X146.7946 Y88.6643
G1 X146.5821 Y88.6775
G1 X146.3765 Y88.7292
G1 X146.1818 Y88.8158
G1 X146.0078 Y88.9358
G1 X145.8559 Y89.0829
G1 X145.8149 Y89.1402
G1 X145.5440 Y89.0114
G1 X145.6390 Y88.7499 E0.0114 F834
G1 X145.7142 Y88.4661 E0.0120
G1 X145.7710 Y88.1634 E0.0126
G1 X145.8078 Y87.8279 E0.0138
G1 X145.8181 Y87.3069 E0.0213
G1 X145.8014 Y86.9764 E0.0135
G1 X145.7605 Y86.6519 E0.0133
G1 X145.7047 Y86.3715 E0.0117
G1 X145.6315 Y86.1095 E0.0111
G1 X145.5398 Y85.8604 E0.0108
G1 X145.3708 Y85.5235 E0.0154
G1 X145.1688 Y85.2263 E0.0147
G1 X144.9732 Y85.0089 E0.0119
G1 X144.8037 Y84.8585 E0.0092
G1 X144.5409 Y84.6818 E0.0129
G1 X144.2552 Y84.5517 E0.0128
G1 X143.9168 Y84.4555 E0.0144
G1 X143.4961 Y84.3861 E0.0174
G1 X142.9671 Y84.3500 E0.0216
G1 X142.1445 Y84.3480 E0.0336
G1 X141.6414 Y84.3367 E0.0205
G1 X141.4332 Y84.3656 E0.0086
G1 X141.2217 Y84.4386 E0.0091
G1 X141.0564 Y84.5507 E0.0082
G1 X140.9697 Y84.6600 E0.0057
G1 X140.9108 Y84.8039 E0.0063
G1 X140.8932 Y85.0506 E0.0101
G1 X140.9339 Y85.5503 E0.0205
G1 X140.9250 Y86.5782 E0.0420
G1 X140.9270 Y89.3462 E0.1130
G1 X140.9128 Y89.7217 E0.0153
G1 X140.9229 Y89.9491 E0.0093
G1 X140.9662 Y90.1555 E0.0086
G1 X141.0054 Y90.2651 E0.0048
G1 X141.1077 Y90.4352 E0.0081
G1 X141.2538 Y90.5537 E0.0077
G1 X141.4164 Y90.6067 E0.0070
G1 X141.5901 Y90.6176 E0.0071
G1 X142.0314 Y90.5761 E0.0181
G1 X142.8492 Y90.5840 E0.0334
G1 X143.3684 Y90.5573 E0.0212
G1 X143.7857 Y90.4974 E0.0172
G1 X144.1255 Y90.4084 E0.0143
G1 X144.3352 Y90.3249 E0.0092
G1 X144.6316 Y90.1588 E0.0139
G1 X144.8213 Y90.0157 E0.0097
G1 X145.0012 Y89.8500 E0.0100
G1 X145.1604 Y89.6690 E0.0098
G1 X145.3036 Y89.4715 E0.0100
G1 X145.4324 Y89.2519 E0.0104
G1 X145.5440 Y89.0114 E0.0108
G1 X148.7769 Y89.2744 F4800
G1 X148.5429 Y89.6761
G1 X148.4417 Y89.9135
G1 X148.4055 Y90.0608
G1 X148.3967 Y90.2037
G1 X148.4349 Y90.3858
G1 X148.5079 Y90.5108
G1 X148.6117 Y90.6205
G1 X148.7927 Y90.7321
G1 X148.9879 Y90.7826
G1 X149.1267 Y90.7792
G1 X149.2661 Y90.7344
G1 X149.4263 Y90.6244
G1 X149.5832 Y90.4437
G1 X149.8119 Y90.1027
G1 X149.9764 Y89.7915
G1 X150.1051 Y89.5112
G1 X150.1437 Y89.5762
G1 X150.3737 Y90.0073
G1 X150.6701 Y90.5054
G1 X150.8392 Y90.6798
G1 X150.9879 Y90.7624
G1 X151.1971 Y90.8026
G1 X151.3524 Y90.7898
G1 X151.4983 Y90.7506
G1 X151.6715 Y90.6530
G1 X151.7697 Y90.5515
G1 X151.8413 Y90.4282
G1 X151.8828 Y90.2850
G1 X151.8948 Y90.1307
G1 X151.8783 Y89.9667
G1 X151.8337 Y89.8076
G1 X151.7218 Y89.5781
G1 X151.6787 Y89.5105
G1 X157.0000 Y89.9435
G1 X157.0011 Y90.1364 E0.0079 F845
G1 X157.0329 Y90.2951 E0.0066
G1 X157.0851 Y90.4389 E0.0062
G1 X157.1727 Y90.5798 E0.0068
G1 X157.2739 Y90.6794 E0.0058
G1 X157.4373 Y90.7678 E0.0076
G1 X157.6485 Y90.8028 E0.0087
G1 X158.2304 Y90.7740 E0.0238
G1 X159.8040 Y90.7830 E0.0642
G1 X160.1500 Y90.7636 E0.0141
G1 X160.3566 Y90.7123 E0.0087
G1 X160.4773 Y90.6489 E0.0056
G1 X160.5834 Y90.5594 E0.0057
G1 X160.6824 Y90.3944 E0.0079
G1 X160.7276 Y90.2432 E0.0064
G1 X160.7411 Y90.0790 E0.0067
G1 X160.7188 Y89.9077 E0.0070
G1 X160.6730 Y89.7719 E0.0059
G1 X160.5617 Y89.6164 E0.0078
G1 X160.3962 Y89.5046 E0.0082
G1 X160.2144 Y89.4416 E0.0079
G1 X160.0011 Y89.4033 E0.0088
G1 X159.7388 Y89.3839 E0.0107
G1 X159.4764 Y89.3881 E0.0107
G1 X158.9336 Y89.4314 E0.0222
G1 X158.8935 Y89.4283 E0.0016
G1 X158.9051 Y89.3970 E0.0014
G1 X159.0397 Y89.1733 E0.0107
G1 X160.4541 Y87.1684 E0.1001
G1 X160.5757 Y86.9354 E0.0107
G1 X160.6294 Y86.7743 E0.0069
G1 X160.6572 Y86.5819 E0.0079
G1 X160.6547 Y86.4109 E0.0070
G1 X160.6080 Y86.1970 E0.0089
G1 X160.5561 Y86.0815 E0.0052
G1 X160.4754 Y85.9697 E0.0056
G1 X160.3504 Y85.8725 E0.0065
G1 X160.2551 Y85.8283 E0.0043
G1 X160.0734 Y85.7888 E0.0076
G1 X159.7700 Y85.7817 E0.0124
G1 X157.9045 Y85.7810 E0.0761
G1 X157.6457 Y85.8030 E0.0106
G1 X157.5270 Y85.8259 E0.0049
G1 X157.3382 Y85.8980 E0.0082
G1 X157.2093 Y85.9996 E0.0067
G1 X157.1408 Y86.0851 E0.0045
G1 X157.0669 Y86.2513 E0.0074
G1 X157.0352 Y86.4331 E0.0075
G1 X157.0423 Y86.5929 E0.0065
G1 X157.0978 Y86.7833 E0.0081
G1 X157.1627 Y86.8952 E0.0053
G1 X157.2602 Y86.9944 E0.0057
G1 X157.4280 Y87.0858 E0.0078
G1 X157.5805 Y87.1309 E0.0065
G1 X158.0035 Y87.1768 E0.0174
G1 X158.2543 Y87.1812 E0.0102
G1 X158.8153 Y87.1303 E0.0230
G1 X158.7663 Y87.2057 E0.0037
G1 X157.2439 Y89.3155 E0.1062
G1 X157.0967 Y89.5801 E0.0124
G1 X157.0265 Y89.7830 E0.0088
G1 X157.0000 Y89.9435 E0.0066
G1 E-1.5000 F2400 ; e-retract 1.5
G1 Z0.4550 F4800 ; z-hop start
G1 X135.3430 Y85.1681
G1 Z0.2550 ; z-hop end
G1 E1.5000 F2400 ; e-engage 1.5
G4 P20
